icons/op-microphone-24.svg

<svg width="24" height="24" viewBox="0 0 24 24" fill="none" xmlns="http://www.w3.org/2000/svg">
<path d="M14 12C14 13.0938 13.0938 14 12 14C10.9062 14 10 13.0938 10 12V6C10 4.90625 10.9062 4 12 4C13.0938 4 14 4.90625 14 6V12ZM17 12V10H16V12C16 14.2188 14.2188 16 12 16C9.78125 16 8 14.2188 8 12V10H7V12C7 14.4062 8.71875 16.4375 11 16.9062V18L8 19V20H16V19L13 18V16.9062C15.2812 16.4375 17 14.4062 17 12Z" fill="black"/>
</svg>

<svg xmlns="http://www.w3.org/2000/svg" width="24" height="24" viewBox="0 0 24 24"><path d="M14 12c0 1.094-.906 2-2 2-1.094 0-2-.906-2-2V6c0-1.094.906-2 2-2 1.094 0 2 .906 2 2v6Zm3 0v-2h-1v2c0 2.219-1.781 4-4 4-2.219 0-4-1.781-4-4v-2H7v2a5.024 5.024 0 0 0 4 4.906V18l-3 1v1h8v-1l-3-1v-1.094c2.281-.468 4-2.5 4-4.906Z"/></svg>
